art/system/steam.svg

<?xml version="1.0" encoding="utf-8"?>
<svg version="1.1" id="Layer_1" x="0px" y="0px" enable-background="new 0 0 355.666 89.333" viewBox="0 0 230 60" xmlns="http://www.w3.org/2000/svg">
  <path d="M 30.051 0 C 14.21 0 1.233 12.152 0 27.594 L 16.162 34.243 C 17.532 33.311 19.186 32.764 20.966 32.764 C 21.126 32.764 21.284 32.77 21.442 32.779 L 28.629 22.414 C 28.629 22.365 28.629 22.316 28.629 22.268 C 28.629 16.029 33.729 10.954 40.001 10.954 C 46.272 10.954 51.372 16.029 51.372 22.268 C 51.372 28.507 46.272 33.583 40.001 33.583 C 39.914 33.583 39.828 33.58 39.742 33.578 L 29.492 40.855 C 29.497 40.987 29.502 41.122 29.502 41.257 C 29.502 45.94 25.673 49.749 20.966 49.749 C 16.835 49.749 13.38 46.815 12.597 42.93 L 1.039 38.176 C 4.618 50.768 16.246 60 30.051 60 C 46.705 60 60.205 46.568 60.205 30.001 C 60.205 13.431 46.705 0 30.051 0" style="fill: rgb(255, 255, 255);"/>
  <path d="M 18.896 45.52 L 15.192 43.998 C 15.849 45.358 16.984 46.496 18.492 47.122 C 21.752 48.473 25.51 46.934 26.868 43.688 C 27.526 42.119 27.531 40.386 26.878 38.813 C 26.227 37.238 24.999 36.011 23.42 35.356 C 21.852 34.707 20.173 34.731 18.698 35.284 L 22.525 36.859 C 24.929 37.856 26.065 40.602 25.063 42.994 C 24.064 45.387 21.301 46.518 18.896 45.52" style="fill: rgb(255, 255, 255);"/>
  <path d="M 47.578 22.268 C 47.578 18.111 44.179 14.729 40 14.729 C 35.822 14.729 32.423 18.111 32.423 22.268 C 32.423 26.425 35.822 29.806 40 29.806 C 44.179 29.805 47.578 26.425 47.578 22.268 M 34.321 22.255 C 34.321 19.127 36.87 16.593 40.013 16.593 C 43.157 16.593 45.706 19.127 45.706 22.255 C 45.706 25.383 43.157 27.917 40.013 27.917 C 36.87 27.917 34.321 25.382 34.321 22.255" style="fill: rgb(255, 255, 255);"/>
  <path d="M 93.63 16.434 L 90.835 21.321 C 88.683 19.825 85.765 18.924 83.218 18.924 C 80.307 18.924 78.506 20.123 78.506 22.271 C 78.506 24.88 81.706 25.487 86.461 27.185 C 91.573 28.983 94.511 31.097 94.511 35.755 C 94.511 42.127 89.474 45.706 82.234 45.706 C 78.705 45.706 74.448 44.8 71.176 42.82 L 73.215 37.401 C 75.873 38.798 79.053 39.626 81.888 39.626 C 85.709 39.626 87.525 38.224 87.525 36.151 C 87.525 33.778 84.755 33.065 80.285 31.592 C 75.19 29.9 71.659 27.679 71.659 22.524 C 71.659 16.71 76.339 13.372 83.073 13.372 C 87.766 13.372 91.538 14.851 93.63 16.434" style="fill: rgb(255, 255, 255);"/>
  <polygon points="115.479 19.523 115.479 45.171 108.898 45.171 108.898 19.523 99.346 19.523 99.346 13.907 125.003 13.907 125.003 19.523" style="fill: rgb(255, 255, 255);"/>
  <polygon points="138.876 19.506 138.876 26.551 151.471 26.551 151.471 32.166 138.876 32.166 138.876 39.503 153.489 39.503 153.489 45.171 132.297 45.171 132.297 13.907 153.489 13.907 153.489 19.506" style="fill: rgb(255, 255, 255);"/>
  <path d="M 168.177 39.101 L 166.097 45.172 L 159.198 45.172 L 170.981 13.908 L 177.605 13.908 L 189.721 45.171 L 182.589 45.171 L 180.463 39.1 L 168.177 39.1 Z M 174.256 21.365 L 169.964 33.883 L 178.636 33.883 L 174.256 21.365 Z" style="fill: rgb(255, 255, 255);"/>
  <polygon points="223.495 25.991 214.895 44.26 211.182 44.26 202.721 26.155 202.721 45.171 196.419 45.171 196.419 13.907 202.707 13.907 213.268 36.475 223.455 13.907 229.797 13.907 229.797 45.171 223.496 45.171" style="fill: rgb(255, 255, 255);"/>
</svg>

<svg xmlns="http://www.w3.org/2000/svg" viewBox="0 0 230 60"><path d="M30.05 0A30.1 30.1 0 0 0 0 27.6l16.16 6.64a8.5 8.5 0 0 1 5.28-1.46l7.19-10.37v-.14c0-6.24 5.1-11.32 11.37-11.32s11.37 5.08 11.37 11.32S46.27 33.58 40 33.58h-.26L29.5 40.85l.01.4a8.54 8.54 0 0 1-16.9 1.67L1.04 38.19A30.14 30.14 0 0 0 30.05 60 30.1 30.1 0 0 0 60.2 30c0-16.57-13.5-30-30.15-30" style="fill:#fff;fill-opacity:1"/><path d="M18.9 45.52 15.2 44a6.42 6.42 0 0 0 11.68-.31 6.34 6.34 0 0 0-3.45-8.33 6.4 6.4 0 0 0-4.73-.08l3.82 1.58c2.4 1 3.55 3.74 2.54 6.13a4.7 4.7 0 0 1-6.16 2.53m28.68-23.25c0-4.16-3.4-7.54-7.58-7.54a7.57 7.57 0 0 0-7.58 7.54c0 4.16 3.4 7.54 7.58 7.54a7.57 7.57 0 0 0 7.58-7.54m-13.26-.02a5.7 5.7 0 0 1 5.7-5.66c3.14 0 5.69 2.54 5.69 5.66a5.7 5.7 0 0 1-5.7 5.67 5.7 5.7 0 0 1-5.69-5.67" style="fill:#fff;fill-opacity:1"/><path d="m93.63 16.43-2.8 4.9a14 14 0 0 0-7.61-2.4c-2.91 0-4.71 1.2-4.71 3.34 0 2.61 3.2 3.22 7.95 4.91 5.11 1.8 8.05 3.92 8.05 8.58 0 6.37-5.04 9.95-12.28 9.95-3.53 0-7.78-.91-11.05-2.89l2.03-5.42a19.4 19.4 0 0 0 8.68 2.23c3.82 0 5.64-1.4 5.64-3.48 0-2.37-2.78-3.09-7.25-4.56-5.09-1.69-8.62-3.91-8.62-9.07 0-5.81 4.68-9.15 11.41-9.15 4.7 0 8.47 1.48 10.56 3.06m21.85 3.09v25.65h-6.58V19.52h-9.55v-5.61H125v5.61zm23.4-.01v7.04h12.59v5.62h-12.59v7.33h14.61v5.67H132.3V13.91h21.19v5.6zm29.3 19.59-2.08 6.07h-6.9l11.78-31.26h6.63l12.11 31.26h-7.13l-2.13-6.07zm6.08-17.74-4.3 12.52h8.68zm49.24 4.63-8.6 18.27h-3.72l-8.46-18.1v19.01h-6.3V13.91h6.29l10.56 22.57 10.19-22.57h6.34v31.26h-6.3z" style="fill:#fff"/></svg>
